X: 106
T: A Blur Of Heather
R: jig
M: 6/8
K: Eminor
EEE GFE|EEE AGF|EEE GFE|FGF FED|
EEE GFE|EEE AGF|EEE GFE|AGF GFD:|
FGA Bde|eee gfe|ded B2d|edB dBA|
BAF F2d|eee gfe|ded B2d|edB dBA|BAG AFD:|

